img/item1.svg

<svg width="72" height="72" viewBox="0 0 72 72" fill="none" xmlns="http://www.w3.org/2000/svg">
<circle cx="44" cy="44" r="28" fill="#2C6269"/>
<path fill-rule="evenodd" clip-rule="evenodd" d="M14.496 0H28.496C34.1567 0 38.7627 4.606 38.7627 10.2666V10.2667V14.9333C40.8217 14.9333 42.496 16.6078 42.496 18.6667C42.496 20.7256 40.8217 22.4 38.7627 22.4H38.5502C38.2615 26.0674 36.1978 29.2747 33.1626 31.101V32.6667H36.112C38.6031 32.6667 40.6294 34.693 40.6293 37.1842C40.63 37.2541 40.6291 37.3238 40.6266 37.3934L40.7479 37.4014C44.9638 37.9624 48.096 41.5427 48.0961 45.7333V56H46.2294V45.7334C46.2294 42.4733 43.7934 39.6891 40.5613 39.258L40.1566 39.2323C40.0736 39.3986 39.98 39.5606 39.8761 39.7172L35.0293 46.9513V56H33.1626V42.9565C31.5588 44.1449 29.6055 44.8 27.5627 44.8C25.5195 44.8 23.5664 44.1451 21.9627 42.9571V56H20.096V46.9507L15.2512 39.7198C15.1466 39.5623 15.0525 39.3996 14.9691 39.2326L14.5026 39.2634C11.332 39.689 8.896 42.4732 8.896 45.7333V56H7.0293V45.7333C7.0293 41.5426 10.1616 37.9633 14.3167 37.407L14.4985 37.3946C14.4956 37.3215 14.4946 37.2481 14.4952 37.1746C14.4952 34.6929 16.5214 32.6666 19.0125 32.6666H21.9627V31.1315C19.2935 29.5509 17.3031 26.8626 16.7203 23.577C16.6624 23.2503 16.6185 22.9208 16.5905 22.5904L16.5759 22.4H16.3627C14.3037 22.4 12.6294 20.7255 12.6294 18.6666C12.6294 16.6077 14.3037 14.9333 16.3627 14.9333H16.3641L16.3628 10.5691C14.1573 9.51877 12.6294 7.26788 12.6294 4.66659C12.6294 4.15144 13.0475 3.7333 13.5627 3.7333H14.0639C13.7447 3.18358 13.5627 2.54603 13.5627 1.86659V0.933297C13.5627 0.418141 13.9808 0 14.496 0ZM33.1626 35.672V34.5334H36.112C37.5736 34.5334 38.7627 35.7234 38.7627 37.1934C38.7683 37.7264 38.6153 38.2415 38.3231 38.6811L35.0293 43.5973V37.5387C35.0294 37.0226 34.6121 36.6053 34.096 36.6053H33.9373C33.4893 36.5287 33.1589 36.1377 33.1626 35.672ZM29.5135 32.4996C30.1284 32.3806 30.7238 32.2126 31.2959 32V35.6636C31.2866 36.8807 32.0566 37.9363 33.1626 38.3254V40.4479C31.7317 42.032 29.7088 42.9333 27.5627 42.9333C25.4165 42.9333 23.3937 42.0319 21.9627 40.4494V38.3264C23.0678 37.9373 23.8377 36.8826 23.8294 35.672V32.0136C25.0094 32.4416 26.2731 32.6723 27.5731 32.6723C28.2124 32.6723 28.8621 32.6153 29.5135 32.4996ZM20.096 37.5387V43.5959L16.8043 38.6829C16.5103 38.2414 16.3572 37.7253 16.3628 37.1839C16.3627 35.7224 17.5517 34.5333 19.0134 34.5333H21.9627V35.6786C21.9655 36.1377 21.636 36.5288 21.188 36.6054H21.0293C20.5141 36.6054 20.096 37.0226 20.096 37.5387ZM35.1288 11.1999H36.8963L36.8972 14.0611C36.1836 13.4162 35.4006 12.4564 35.1288 11.1999ZM33.2297 11.1999C33.6439 14.0413 35.8705 15.7542 36.8979 16.4045L36.8988 19.5273L36.7019 22.0715C36.4424 26.3238 33.34 29.8584 29.1727 30.6647C24.2037 31.5467 19.4399 28.2213 18.557 23.2503C18.5094 22.9796 18.473 22.7071 18.4506 22.4401L18.2294 19.6V16.4032C19.2576 15.752 21.4817 14.0394 21.8956 11.1999H33.2297ZM16.3627 16.8H16.3647L16.3655 19.6719L16.432 20.5333H16.3627C15.3333 20.5333 14.496 19.6961 14.496 18.6666C14.496 17.6372 15.3333 16.8 16.3627 16.8ZM19.9966 11.1999C19.7249 12.4555 18.9427 13.4148 18.2294 14.0597V11.1334C18.5343 11.1772 18.8459 11.1999 19.1627 11.1999H19.9966ZM38.7627 19.6V16.8C39.7921 16.8 40.6294 17.6372 40.6294 18.6667C40.6294 19.6961 39.7923 20.5334 38.7627 20.5334H38.6914L38.7627 19.6ZM14.5903 5.6C15.0234 7.72702 16.9097 9.3333 19.1627 9.3333V9.33341H36.8437C36.378 5.13898 32.8127 1.8667 28.496 1.8667H15.4293C15.4293 2.89625 16.2666 3.73341 17.296 3.73341C17.8112 3.73341 18.2293 4.15155 18.2293 4.6667C18.2293 5.18186 17.8112 5.6 17.296 5.6H14.5903ZM23.8294 17.7333C23.8294 18.7642 22.9937 19.6 21.9627 19.6C20.9318 19.6 20.096 18.7642 20.096 17.7333C20.096 16.7023 20.9318 15.8666 21.9627 15.8666C22.9937 15.8666 23.8294 16.7023 23.8294 17.7333ZM33.1627 19.6C34.1937 19.6 35.0294 18.7642 35.0294 17.7333C35.0294 16.7023 34.1937 15.8666 33.1627 15.8666C32.1318 15.8666 31.296 16.7023 31.296 17.7333C31.296 18.7642 32.1318 19.6 33.1627 19.6ZM27.0746 20.5333L28.4288 17.1472L26.6957 16.4537L24.829 21.1204C24.7141 21.4079 24.7497 21.7346 24.9233 21.9903C25.0968 22.246 25.3863 22.4 25.6961 22.4H28.4961V20.5333H27.0746ZM25.8547 24.2667C27.3079 24.2657 28.6743 23.7001 29.7028 22.6726L31.0226 23.9933C29.6421 25.3727 27.8063 26.1324 25.8547 26.1334H25.696V24.2667H25.8547ZM17.2961 47.6C17.2961 47.0839 17.7142 46.6667 18.2294 46.6667C18.7446 46.6667 19.1627 47.0839 19.1627 47.6V53.2C19.1627 53.7161 18.7446 54.1333 18.2294 54.1333C17.7142 54.1333 17.2961 53.7161 17.2961 53.2V47.6ZM35.9627 47.6C35.9627 47.0839 36.3799 46.6667 36.896 46.6667C37.4121 46.6667 37.8294 47.0839 37.8293 47.6V53.2C37.8293 53.7161 37.4121 54.1333 36.896 54.1333C36.3799 54.1333 35.9627 53.7161 35.9627 53.2V47.6Z" fill="#79C8C7"/>
</svg>

<svg width="72" height="72" fill="none" xmlns="http://www.w3.org/2000/svg"><circle cx="44" cy="44" r="28" fill="#2C6269"/><path fill-rule="evenodd" clip-rule="evenodd" d="M14.496 0h14c5.66 0 10.267 4.606 10.267 10.267v4.666a3.737 3.737 0 0 1 3.733 3.734 3.737 3.737 0 0 1-3.733 3.733h-.213a11.184 11.184 0 0 1-5.387 8.701v1.566h2.949a4.522 4.522 0 0 1 4.515 4.726l.12.008c4.217.561 7.349 4.142 7.35 8.332V56h-1.868V45.733a6.553 6.553 0 0 0-5.668-6.475l-.404-.026a4.562 4.562 0 0 1-.28.485l-4.848 7.234V56h-1.866V42.956a9.388 9.388 0 0 1-5.6 1.844 9.39 9.39 0 0 1-5.6-1.843V56h-1.867v-9.05l-4.845-7.23a4.576 4.576 0 0 1-.282-.487l-.466.03c-3.171.426-5.607 3.21-5.607 6.47V56H7.029V45.733c0-4.19 3.133-7.77 7.288-8.326l.181-.012a4.52 4.52 0 0 1 4.514-4.728h2.95V31.13a10.993 10.993 0 0 1-5.372-8.54l-.014-.191h-.213a3.737 3.737 0 0 1-3.734-3.733 3.737 3.737 0 0 1 3.734-3.734h.001l-.001-4.364a6.541 6.541 0 0 1-3.734-5.902c0-.516.418-.934.934-.934h.5a3.705 3.705 0 0 1-.5-1.866V.933c0-.515.418-.933.933-.933zm18.667 35.672v-1.139h2.949c1.462 0 2.65 1.19 2.65 2.66a2.629 2.629 0 0 1-.439 1.488l-3.294 4.916V37.54a.932.932 0 0 0-.933-.934h-.159a.934.934 0 0 1-.774-.933zm-3.65-3.172c.615-.12 1.21-.287 1.783-.5v3.664a2.798 2.798 0 0 0 1.867 2.661v2.123a7.525 7.525 0 0 1-5.6 2.485 7.53 7.53 0 0 1-5.6-2.484v-2.123a2.797 2.797 0 0 0 1.866-2.654v-3.658a10.971 10.971 0 0 0 5.684.486zm-9.417 5.039v6.057l-3.292-4.913a2.638 2.638 0 0 1-.441-1.5 2.653 2.653 0 0 1 2.65-2.65h2.95v1.146a.934.934 0 0 1-.775.926h-.159a.933.933 0 0 0-.933.934zm15.033-26.34h1.767l.001 2.862c-.713-.645-1.496-1.605-1.768-2.861zm-1.9 0c.415 2.842 2.642 4.555 3.669 5.205v3.123l-.196 2.544a9.328 9.328 0 0 1-7.53 8.594c-4.968.882-9.732-2.444-10.615-7.415a9.088 9.088 0 0 1-.106-.81l-.222-2.84v-3.197c1.029-.651 3.253-2.364 3.667-5.203H33.23zM16.364 16.8h.002v2.872l.067.861h-.07a1.869 1.869 0 0 1-1.866-1.866c0-1.03.837-1.867 1.867-1.867zm3.634-5.6c-.272 1.256-1.054 2.215-1.768 2.86v-2.927c.305.044.617.067.934.067h.834zm18.766 8.4v-2.8c1.03 0 1.866.837 1.866 1.867s-.837 1.866-1.866 1.866h-.072l.072-.933zM14.59 5.6a4.675 4.675 0 0 0 4.573 3.733h17.68c-.465-4.194-4.03-7.466-8.347-7.466H15.429c0 1.03.838 1.866 1.867 1.866a.934.934 0 0 1 0 1.867H14.59zm9.24 12.133a1.867 1.867 0 1 1-3.734 0 1.867 1.867 0 0 1 3.733 0zm9.333 1.867a1.867 1.867 0 1 0 0-3.733 1.867 1.867 0 0 0 0 3.733zm-6.088.933l1.354-3.386-1.733-.693-1.867 4.666a.934.934 0 0 0 .867 1.28h2.8v-1.867h-1.421zm-1.22 3.734a5.414 5.414 0 0 0 3.848-1.594l1.32 1.32a7.27 7.27 0 0 1-5.168 2.14h-.159v-1.866h.159zM17.296 47.6a.933.933 0 1 1 1.867 0v5.6a.933.933 0 1 1-1.867 0v-5.6zm18.667 0a.932.932 0 1 1 1.866 0v5.6a.932.932 0 1 1-1.866 0v-5.6z" fill="#79C8C7"/></svg>
